src/assets/scam-advance-payment.svg

<svg xmlns="http://www.w3.org/2000/svg" width="97" height="97" fill="none"><g clip-path="url(#a)"><path fill="#414652" d="M96.5.5h-80v45.71h80z"/><path fill="#5C616D" d="M88.5 14.71h-80v45.71h80z"/><path fill="#9498A2" d="M80.5 28.91H.5v45.71h80z"/><path fill="#B1B4BC" d="M49.64 56.64c0-3.95-2.08-6.19-7.63-7.74-3.97-1.12-4.85-1.85-4.85-3.47 0-1.14.68-2.55 3.06-2.55 2.84 0 3.32 1.67 3.59 2.7h5.27c-.28-2.89-1.92-5.74-6.53-6.44v-2.38h-4.41v2.42c-3.52.66-6.28 3-6.28 6.76 0 3.49 1.83 5.8 8.1 7.61 3.44.98 4.41 1.87 4.41 3.69 0 1.49-.88 2.8-3.62 2.8-2.22 0-3.69-1.21-4.12-3.12h-5.26c.29 3.59 2.75 6.2 7.04 6.86v2.98h4.45v-2.99c4.07-.61 6.78-2.94 6.78-7.13"/><path fill="#FF444F" d="M74.87 96.5c11.946 0 21.63-9.684 21.63-21.63s-9.684-21.63-21.63-21.63-21.63 9.684-21.63 21.63S62.924 96.5 74.87 96.5"/><path fill="#fff" d="M87.21 75.26c0-6.81-5.52-12.33-12.33-12.33s-12.33 5.52-12.33 12.33v5.4h4.47l-.62 6.17h3.47V84.9h1.54v1.93h2.7V84.9h1.54v1.93h2.7V84.9h1.54v1.93h3.47l-.62-6.17h4.47zM69.79 77.8c-2.04 0-3.7-1.66-3.7-3.7h7.4c0 2.04-1.66 3.7-3.7 3.7m2.72 3.24 2.36-3.48 2.36 3.48zm7.45-3.24c-2.04 0-3.7-1.66-3.7-3.7h7.4c0 2.04-1.66 3.7-3.7 3.7"/></g><defs><clipPath id="a"><path fill="#fff" d="M.5.5h96v96H.5z"/></clipPath></defs></svg>

<svg width="97" height="97" viewBox="0 0 97 97" fill="none" xmlns="http://www.w3.org/2000/svg">
<g clip-path="url(#clip0_1801_62326)">
<path d="M96.5 0.5H16.5V46.21H96.5V0.5Z" fill="#414652"/>
<path d="M88.5 14.71H8.5V60.42H88.5V14.71Z" fill="#5C616D"/>
<path d="M80.5 28.91H0.5V74.62H80.5V28.91Z" fill="#9498A2"/>
<path d="M49.64 56.64C49.64 52.69 47.56 50.45 42.01 48.9C38.04 47.78 37.16 47.05 37.16 45.43C37.16 44.29 37.84 42.88 40.22 42.88C43.06 42.88 43.54 44.55 43.81 45.58H49.08C48.8 42.69 47.16 39.84 42.55 39.14V36.76H38.14V39.18C34.62 39.84 31.86 42.18 31.86 45.94C31.86 49.43 33.69 51.74 39.96 53.55C43.4 54.53 44.37 55.42 44.37 57.24C44.37 58.73 43.49 60.04 40.75 60.04C38.53 60.04 37.06 58.83 36.63 56.92H31.37C31.66 60.51 34.12 63.12 38.41 63.78V66.76H42.86V63.77C46.93 63.16 49.64 60.83 49.64 56.64Z" fill="#B1B4BC"/>
<path d="M74.87 96.5C86.8159 96.5 96.5 86.8159 96.5 74.87C96.5 62.9241 86.8159 53.24 74.87 53.24C62.9241 53.24 53.24 62.9241 53.24 74.87C53.24 86.8159 62.9241 96.5 74.87 96.5Z" fill="#FF444F"/>
<path d="M87.21 75.26C87.21 68.45 81.69 62.93 74.88 62.93C68.07 62.93 62.55 68.45 62.55 75.26V80.66H67.02L66.4 86.83H69.87V84.9H71.41V86.83H74.11V84.9H75.65V86.83H78.35V84.9H79.89V86.83H83.36L82.74 80.66H87.21V75.26ZM69.79 77.8C67.75 77.8 66.09 76.14 66.09 74.1H73.49C73.49 76.14 71.83 77.8 69.79 77.8ZM72.51 81.04L74.87 77.56L77.23 81.04H72.51ZM79.96 77.8C77.92 77.8 76.26 76.14 76.26 74.1H83.66C83.66 76.14 82 77.8 79.96 77.8Z" fill="white"/>
</g>
<defs>
<clipPath id="clip0_1801_62326">
<rect width="96" height="96" fill="white" transform="translate(0.5 0.5)"/>
</clipPath>
</defs>
</svg>
